src/pos-icons/pinwheel.svg

<svg height="24" viewBox="0 0 24 24" width="24" xmlns="http://www.w3.org/2000/svg"><path d="m12 12c0-3 2.5-5.5 5.5-5.5s5.5 2.5 5.5 5.5zm0 0c0 3-2.5 5.5-5.5 5.5s-5.5-2.5-5.5-5.5zm0 0c-3 0-5.5-2.5-5.5-5.5s2.5-5.5 5.5-5.5zm0 0c3 0 5.5 2.5 5.5 5.5s-2.5 5.5-5.5 5.5z"/></svg>

<?xml version="1.0" encoding="UTF-8"?><!DOCTYPE svg PUBLIC "-//W3C//DTD SVG 1.1//EN" "http://www.w3.org/Graphics/SVG/1.1/DTD/svg11.dtd"><svg xmlns="http://www.w3.org/2000/svg" xmlns:xlink="http://www.w3.org/1999/xlink" version="1.1" id="mdi-pinwheel" width="24" height="24" viewBox="0 0 24 24"><path d="M12,12C12,9 14.5,6.5 17.5,6.5C20.5,6.5 23,9 23,12H12M12,12C12,15 9.5,17.5 6.5,17.5C3.5,17.5 1,15 1,12H12M12,12C9,12 6.5,9.5 6.5,6.5C6.5,3.5 9,1 12,1V12M12,12C15,12 17.5,14.5 17.5,17.5C17.5,20.5 15,23 12,23V12Z" /></svg>
